!!!!SEGMENT: pl-gd--ee-1638--006-010_marenzio-luca--il-quinto-libro-de-madrigalia-a-cinque-voci-quella-che-lieta.krn
!!!cenid: 15xx:892
!!!COM: Marenzio, Luca
!!!COM-rismID: pe30003955
!!!CDT: ~1553-1599/08/22
!!!CNT: Italian
!!!GTL: Il Quinto libro de madrigalia a cinque voci
!!!OTL: Quella che lieta
!!!OMV: 010
!!!PDT: 1585
!!!AGN:
!!!SMS-siglum: PL-GD
!!!SMS-shelfmark: Ee 1638
!!!SMS-variant:
!!!SMS-altvar:
!!!SMS-shelfwork: 006-010 G
!!!NIFC-rismSourceID: 1001202747
!!!NIFC-rismChildID: 990039296
!!!NIFC-islandoraID: pl-gd:57883
!!!URL-pdf-islandora: https://repozytorium.nifc.pl/islandora/object/pl-gd%3A57883/datastream/PDF/view
!!!URL-scan: https://polish.musicsources.pl/pl/lokalizacje/galeria/klocki-introligatorskie/655 @EN{Scan on Polish Music Sources Website} @PL{Skany w portalu Dziedzictwo Muzyki Polskiej w otwartym dostępie}
!!!ONB-nifc:
!!!AIN: 1 alto 1 bass 1 soprn 1 tenor 1 vox
!!!key: a
**kern	**text	**kern	**text	**kern	**text	**kern	**text	**kern	**text
*part5	*part5	*part4	*part4	*part3	*part3	*part2	*part2	*part1	*part1
*staff5	*staff5	*staff4	*staff4	*staff3	*staff3	*staff2	*staff2	*staff1	*staff1
*I"BASSO	*	*I"TENORE 	*	*I"QVINTO 	*	*I"ALTO	*	*I"CANTO	*
*I'B	*	*I'T	*	*I'V	*	*I'A	*	*I'S	*
*ICvox	*	*ICvox	*	*ICvox	*	*ICvox	*	*ICvox	*
*Ibass	*	*Itenor	*	*Ivox	*	*Ialto	*	*Isoprn	*
*clefF4	*	*clefC4	*	*clefC4	*	*clefC3	*	*clefC1	*
*k[]	*	*k[]	*	*k[]	*	*k[]	*	*k[]	*
*a:	*	*a:	*	*a:	*	*a:	*	*a:	*
*M2/2	*	*M2/2	*	*M2/2	*	*M2/2	*	*M2/2	*
*met(C|)	*	*met(C|)	*	*met(C|)	*	*met(C|)	*	*met(C|)	*
=1-	=1-	=1-	=1-	=1-	=1-	=1-	=1-	=1-	=1-
!LO:TX:a:t=Seconda parte.	!	!	!	!	!	!	!	!	!
!	!	!LO:TX:a:t=Seconda parte.	!	!LO:TX:a:t=Seconda parte.	!	!LO:TX:a:t=Seconda parte.	!	!LO:TX:a:t=Seconda parte.	!
1r	.	1r	.	1r	.	1A	QVel-	0r	.
=2-	=2-	=2-	=2-	=2-	=2-	=2-	=2-	=2-	=2-
1AA	QVel-	2r	.	2r	.	1e	-la	.	.
.	.	1A\	QVel-	1c\	QVel-	.	.	.	.
=3-	=3-	=3-	=3-	=3-	=3-	=3-	=3-	=3-	=3-
1E	-la	.	.	.	.	2r	.	1r	.
.	.	2G#X/	-la	2B\	-la	1e/	che	.	.
=4-	=4-	=4-	=4-	=4-	=4-	=4-	=4-	=4-	=4-
1r	.	1r	.	2A/	che	.	.	1a	QVel-
.	.	.	.	4d\	lie-	4f\	lie-	.	.
.	.	.	.	4d\	-ta	4f\	-ta	.	.
=5-	=5-	=5-	=5-	=5-	=5-	=5-	=5-	=5-	=5-
1r	.	2r	.	4c\	del	4e\	del	1ee	-la
.	.	.	.	4A/	mor-	4c/	mor-	.	.
.	.	1A/	che	4c#X\	-tal	4e\	-tal	.	.
.	.	.	.	4c#\	mio	4e\	mio	.	.
=6-	=6-	=6-	=6-	=6-	=6-	=6-	=6-	=6-	=6-
1D	Quel-	.	.	2d\	du-	2f\	du-	2a\	che
.	.	4f\	lie-	2A/	-olo	2d\	-olo	4dd\	lie-
.	.	4f\	-ta	.	.	.	.	4dd\	-ta
=7-	=7-	=7-	=7-	=7-	=7-	=7-	=7-	=7-	=7-
1A	-la	4e\	del	2r	.	1r	.	4cc\	del
.	.	4c\	mor-	.	.	.	.	4a\	mor-
.	.	4e\	-tal	1A\	che	.	.	4cc#X\	-tal
.	.	4e\	mio	.	.	.	.	4cc#\	mio
=8-	=8-	=8-	=8-	=8-	=8-	=8-	=8-	=8-	=8-
2D/	che	2f\	du-	.	.	1d	Quel-	2dd\	du-
4G\	lie-	2d\	-olo	4B\	lie-	.	.	2b\	-olo
!	!	!	!	!LO:SIC:v:t=custos c	!	!	!	!	!
4G\	-ta	.	.	4B\	-ta	.	.	.	.
!	!	!	!	!LO:LB:g=original	!	!	!	!	!
=9-	=9-	=9-	=9-	=9-	=9-	=9-	=9-	=9-	=9-
4F\	del	2r	.	4cny\	del	1a	-la	4r	.
4D/	mor-	.	.	4F/	mor-	.	.	4dd\	Che
!	!	!LO:SIC:v:t=custos G	!	!	!	!	!	!	!
4F#X\	-tal	1d\	che	4A/	-tal	.	.	4a\	lie-
4F#\	mio	.	.	4d\	mio	.	.	4a\	-ta
!	!	!LO:LB:g=original	!	!	!	!	!	!	!
=10-	=10-	=10-	=10-	=10-	=10-	=10-	=10-	=10-	=10-
!	!	!	!	!	!	!LO:SIC:v:t=custos g	!	!	!
1G	du-	.	.	4.B\	du-	2d\	Che	4b\	del
!	!	!	!	!	!	!	!	!LO:SIC:v:t=custos b	!
.	.	.	.	.	.	.	.	4dd\	mor-
.	.	.	.	8c\	-o-	.	.	.	.
!	!	!	!	!	!	!LO:LB:g=original	!	!LO:LB:g=original	!
.	.	4Gny/	lie-	2d\	.	4g\	lie-	4b-X\	-tal
.	.	4G/	-ta	.	.	4g\	-ta	4b-\	mio
=11-	=11-	=11-	=11-	=11-	=11-	=11-	=11-	=11-	=11-
1D	-olo	4A/	del	1d	-lo	4f\	del	1a	du-
.	.	4F/	mor-	.	.	4d\	mor-	.	.
.	.	4A/	-tal	.	.	4f#X\	-tal	.	.
.	.	4A/	mio	.	.	4f#\	mio	.	.
=12-	=12-	=12-	=12-	=12-	=12-	=12-	=12-	=12-	=12-
2r	.	1G	du-	2B\	Nei	2g\	du-	2dd\	-olo
!LO:SIC:v:t=custos c	!	!	!	!	!	!	!	!	!
2G\	Nei	.	.	1g\	mont'-	2d\	-olo	2bny\	Nei
!LO:LB:g=original	!	!	!	!	!	!	!	!	!
=13-	=13-	=13-	=13-	=13-	=13-	=13-	=13-	=13-	=13-
1c	mont'-	1C	-lo	.	.	2c/	Nei	1ee	mõ(n)t'
.	.	.	.	1e\	-et	1g\	mõ(n)t	.	.
=14-	=14-	=14-	=14-	=14-	=14-	=14-	=14-	=14-	=14-
1C	-et	2c\	Nei	.	.	.	.	1e	et
.	.	1g\	mon-	2.c\	per	2e\	et	.	.
=15-	=15-	=15-	=15-	=15-	=15-	=15-	=15-	=15-	=15-
2.E\	per	.	.	.	.	2.e\	per	2.g/	per
.	.	.	.	4B\	le	.	.	.	.
.	.	2G/	-ti	1c\	ſelu'	.	.	.	.
4E\	le	.	.	.	.	4e\	le	4g/	le
=16-	=16-	=16-	=16-	=16-	=16-	=16-	=16-	=16-	=16-
2F#X\	ſelue	1r	.	.	.	1d	ſelu'	2a\	ſelu'
1G\	oſ-	.	.	2B\	oſ	.	.	2b\	oſ-
=17-	=17-	=17-	=17-	=17-	=17-	=17-	=17-	=17-	=17-
.	.	0r	.	1.A	cure	2e\	oſ-	1ccny	-cure
1Fny\	-cure	.	.	.	.	1fny\	-cure	.	.
=18-	=18-	=18-	=18-	=18-	=18-	=18-	=18-	=18-	=18-
.	.	.	.	.	.	.	.	2dd\	et
2E\	et	.	.	2c\	et	2g\	e	2.ee\	ſo-
=19-	=19-	=19-	=19-	=19-	=19-	=19-	=19-	=19-	=19-
1G#X	ſo-	1r	.	1B	ſo-	1e	ſo-	.	.
.	.	.	.	.	.	.	.	8dd\	.
.	.	.	.	.	.	.	.	8cc\	.
.	.	.	.	.	.	.	.	2b\	.
=20-	=20-	=20-	=20-	=20-	=20-	=20-	=20-	=20-	=20-
1A	-le	2r	.	1c#X	-le	1e	-le	2a\	-le
.	.	2A/	Fug-	.	.	.	.	4r	.
.	.	.	.	.	.	.	.	4ee\	Fug-
=21-	=21-	=21-	=21-	=21-	=21-	=21-	=21-	=21-	=21-
2r	.	4B\	-gen-	4r	.	2r	.	4dd\	-gen-
!	!	!	!	!LO:SIC:v:t=custos B	!	!	!	!LO:SIC:v:t=custos b	!
.	.	4c\	-do	4A/	Fug-	.	.	4cc\	-do
!	!	!	!	!LO:LB:g=original	!	!	!	!LO:LB:g=original	!
2Gny\	Fug-	2d\	gir	2B\	-gen-	4r	.	2b\	gir
!	!	!	!	!	!	!LO:SIC:v:t=custos a	!	!	!
.	.	.	.	.	.	4g\	Fug-	.	.
!	!	!	!	!	!	!LO:LB:g=original	!	!	!
=22-	=22-	=22-	=22-	=22-	=22-	=22-	=22-	=22-	=22-
4F\	-gen-	4r	.	2cny\	-do	4a\	-gen-	1r	.
4E\	-do	4G/	co-	.	.	4g\	-do	.	.
2D/	gir	4A/	-me	2d\	gir	2f\	gir	.	.
!	!	!LO:SIC:v:t=custos c	!	!	!	!	!	!	!
.	.	4B\	ne-	.	.	.	.	.	.
!	!	!LO:LB:g=original	!	!	!	!	!	!	!
=23-	=23-	=23-	=23-	=23-	=23-	=23-	=23-	=23-	=23-
4r	.	4c\	-mi-	1r	.	2e\	co-	2a\	Fug-
4A\	co-	4c\	-co	.	.	.	.	.	.
4G\	-me	2d\	ſo-	.	.	1g\	-me	2b\	-gen-
!LO:SIC:v:t=custos E	!	!	!	!	!	!	!	!	!
4F\	ne-	.	.	.	.	.	.	.	.
!LO:LB:g=original	!	!	!	!	!	!	!	!	!
=24-	=24-	=24-	=24-	=24-	=24-	=24-	=24-	=24-	=24-
4E\	-mi-	2e\	-le	4r	.	.	.	2cc\	-do
4E\	-co	.	.	4G/	co-	.	.	.	.
2D/	ſo-	2r	.	4A/	-me	2f\	ne-	2dd\	gir
.	.	.	.	4B\	ne-	.	.	.	.
=25-	=25-	=25-	=25-	=25-	=25-	=25-	=25-	=25-	=25-
2C/	-le	4r	.	4c\	-mi-	4e\	-mi-	4r	.
.	.	4G/	co-	4c\	-co	4g\	-co	4ee\	co-
1G\	Me	4B\	-me	1d\	ſo-	2g\	ſo-	4dd\	-me
.	.	4c\	ne-	.	.	.	.	4cc\	ne-
=26-	=26-	=26-	=26-	=26-	=26-	=26-	=26-	=26-	=26-
.	.	4d\	-mi-	.	.	2G/	-le	4b\	-mi-
.	.	4G/	-co	.	.	.	.	4b\	-co
2F\	che	2A/	ſo-	2D/	-le	1d\	Me	2a\	ſo-
=27-	=27-	=27-	=27-	=27-	=27-	=27-	=27-	=27-	=27-
1E	lei	2B\	-le	1G	Me	.	.	2g/	-le
.	.	1e\	Me	.	.	2c/	che	1g\	Me
=28-	=28-	=28-	=28-	=28-	=28-	=28-	=28-	=28-	=28-
1G	co-	.	.	1r	.	1B	lei	.	.
.	.	2d\	che	.	.	.	.	2f/	che
=29-	=29-	=29-	=29-	=29-	=29-	=29-	=29-	=29-	=29-
2A\	-me	1c	lei	0r	.	2r	.	1e	lei
4A\	dõn'-	.	.	.	.	2c/	co-	.	.
4A\	-ho-	.	.	.	.	.	.	.	.
=30-	=30-	=30-	=30-	=30-	=30-	=30-	=30-	=30-	=30-
4G\	-nor'	1B	co-	.	.	2d\	-me	1g	co-
4F\	et	.	.	.	.	.	.	.	.
2E\	co-	.	.	.	.	4e\	don-	.	.
.	.	.	.	.	.	4e\	-n'ho-	.	.
=31-	=31-	=31-	=31-	=31-	=31-	=31-	=31-	=31-	=31-
1D	-le	2d\	-me	1r	.	4f\	-nor'	2a\	-me
.	.	.	.	.	.	4d\	et	.	.
.	.	4d\	don-	.	.	2f#X\	co-	4a\	don-
!	!	!	!	!	!	!	!	!LO:SIC:v:t=custos dd	!
.	.	4d\	-'ho-	.	.	.	.	4a\	-n'ho-
!	!	!	!	!	!	!	!	!LO:LB:g=original	!
=32-	=32-	=32-	=32-	=32-	=32-	=32-	=32-	=32-	=32-
!	!	!	!	!	!	!LO:SIC:v:t=custos e	!	!	!
1r	.	4B\	-nor'	1G	co-	1g	-lo	4dd\	-nor'
!	!	!LO:SIC:v:t=custos d	!	!	!	!	!	!	!
.	.	4e\	et	.	.	.	.	4cc\	et
!	!	!LO:LB:g=original	!	!	!	!	!	!	!
.	.	2.d\	col-	.	.	.	.	2b\	col-
!	!	!	!	!	!	!LO:LB:g=original	!	!	!
=33-	=33-	=33-	=33-	=33-	=33-	=33-	=33-	=33-	=33-
0r	.	.	.	2A/	-me	2e\	Al	2a\	-lo
.	.	8c#X\	.	.	.	.	.	.	.
.	.	8B\	.	.	.	.	.	.	.
.	.	2c#X\	.	4A/	don-	1fny\	pen-	4r	.
.	.	.	.	4A/	-n'ho-	.	.	4a\	Al
=34-	=34-	=34-	=34-	=34-	=34-	=34-	=34-	=34-	=34-
.	.	1d	lo	4d\	-nor'	.	.	2a\	pen-
!	!	!	!	!LO:SIC:v:t=custos B	!	!	!	!	!
.	.	.	.	4c\	et	.	.	.	.
!	!	!	!	!LO:LB:g=original	!	!	!	!	!
.	.	.	.	2B\	co-	2g\	-ſier	2d/	-ſier
=35-	=35-	=35-	=35-	=35-	=35-	=35-	=35-	=35-	=35-
2A\	Al	4r	.	1A	-lo	4a\	mio	4e/	mio
.	.	4e\	Al	.	.	4a\	che	4cc\	che
1F\	pen-	1f\	pen-	.	.	4a\	queſt'	4cc\	queſt'
.	.	.	.	.	.	4a\	obie-	4cc\	obie-
=36-	=36-	=36-	=36-	=36-	=36-	=36-	=36-	=36-	=36-
.	.	.	.	1r	.	4f\	-ti	4a\	-ti
.	.	.	.	.	.	4a\	ha	4cc\	hà
2G\	-ſier	4d\	-ſier	.	.	2g\	ſo-	2b\	ſo-
.	.	2e\	mio	.	.	.	.	.	.
=37-	=37-	=37-	=37-	=37-	=37-	=37-	=37-	=37-	=37-
4A\	mio	.	.	2e\	Al	1c	-lo	4a\	-lo
!LO:SIC:v:t=custos A	!	!	!	!	!	!	!	!	!
4A\	che	4cny\	che	.	.	.	.	4e/	che
!LO:LB:g=original	!	!	!	!	!	!	!	!	!
4A\	queſt'	4c\	queſt'	1c\	pẽ(n)-	.	.	4e/	queſt
4A\	obie-	4c\	obie-	.	.	.	.	4e/	obie-
=38-	=38-	=38-	=38-	=38-	=38-	=38-	=38-	=38-	=38-
4F\	-ti	4A/	-ti	.	.	1r	.	4f/	-ti'
!	!	!	!	!	!	!	!	!LO:SIC:v:t=custos e	!
4A\	hà	4c\	hà	.	.	.	.	4e/	hà
!	!	!	!	!	!	!	!	!LO:LB:g=original	!
2G\	ſo-	2B\	ſo-	2d\	-ſier	.	.	2g/	ſo-
=39-	=39-	=39-	=39-	=39-	=39-	=39-	=39-	=39-	=39-
1C	-lo	2c\	-lo	4e\	mio	4r	.	1g	-lo
.	.	.	.	4c\	che	4e\	che	.	.
.	.	2r	.	4c\	queſt'	4e\	queſt	.	.
.	.	.	.	4c\	obie-	4e\	obie-	.	.
=40-	=40-	=40-	=40-	=40-	=40-	=40-	=40-	=40-	=40-
1r	.	1r	.	4A/	-ti'	4c/	-ti'	2r	.
.	.	.	.	4c\	hà	4e\	hà	.	.
.	.	.	.	2B\	ſo-	2d\	ſo-	1g\	E
=41-	=41-	=41-	=41-	=41-	=41-	=41-	=41-	=41-	=41-
1C	Et	1e	Et	2c\	-le	2G/	-lo	.	.
!	!	!	!	!	!	!LO:SIC:v:t=custos a	!	!	!
.	.	.	.	4r	.	2g\	E	1cc\	ch'in-
.	.	.	.	4c\	Et	.	.	.	.
!	!	!	!	!	!	!LO:LB:g=original	!	!	!
=42-	=42-	=42-	=42-	=42-	=42-	=42-	=42-	=42-	=42-
2AA/	ch'in-	2e\	ch'in-	2c\	ch'in-	2a\	ch'in-	.	.
!	!	!LO:SIC:v:t=custos d	!	!	!	!	!	!	!
2E\	-di	2e\	-di	2G/	-di	2g\	-di	1b\	-di
!	!	!LO:LB:g=original	!	!	!	!	!	!	!
=43-	=43-	=43-	=43-	=43-	=43-	=43-	=43-	=43-	=43-
1G	viu'	1d	viu'	1B	viu'	1g	viu'	.	.
.	.	.	.	.	.	.	.	1dd\	viu'
=44-	=44-	=44-	=44-	=44-	=44-	=44-	=44-	=44-	=44-
2D/	et	2d\	et	2A/	et	2f#X\	et	.	.
1D\	cib'-	1d\	cib'-	1A\	cib'-	1f#\	cib'-	2a\	et
=45-	=45-	=45-	=45-	=45-	=45-	=45-	=45-	=45-	=45-
.	.	.	.	.	.	.	.	2a\	cib'-
!	!	!	!	!LO:SIC:v:t=custos G	!	!	!	!	!
2BB/	-al-	2d\	-al-	2G/	-al-	2e\	-al-	2dd\	-a-
!	!	!	!	!LO:LB:g=original	!	!	!	!	!
=46-	=46-	=46-	=46-	=46-	=46-	=46-	=46-	=46-	=46-
2BB/	-tro	2e\	-tro	1G	-tro	1e	-tro	2cc\	-tro
2GG/	non	2d\	non	.	.	.	.	2b\	non
=47-	=47-	=47-	=47-	=47-	=47-	=47-	=47-	=47-	=47-
1AA	vo-	1c	vo-	2E/	non	4r	.	1a	vo-
.	.	.	.	.	.	4c/	non	.	.
.	.	.	.	1A\	vo-	1e\	vo-	.	.
=48-	=48-	=48-	=48-	=48-	=48-	=48-	=48-	=48-	=48-
1E	-le	1B	-le	.	.	.	.	1b	-le
.	.	.	.	2G#X/	-le	2e\	-le	.	.
=49-	=49-	=49-	=49-	=49-	=49-	=49-	=49-	=49-	=49-
0r	.	2r	.	00r	.	2r	.	1e	Ce-
.	.	1A\	Ce-	.	.	1c#X\	Ce-	.	.
=50-	=50-	=50-	=50-	=50-	=50-	=50-	=50-	=50-	=50-
.	.	.	.	.	.	.	.	2f#X/	-lar
.	.	2B\	-lar	.	.	2d\	-lar	2g/	non
=51-	=51-	=51-	=51-	=51-	=51-	=51-	=51-	=51-	=51-
00r	.	2c#X\	non	.	.	2e\	non	1g	po
.	.	1d\	po	.	.	1fny\	po	.	.
=52-	=52-	=52-	=52-	=52-	=52-	=52-	=52-	=52-	=52-
.	.	.	.	.	.	.	.	2b\	de
.	.	2A/	de	.	.	2e\	de	4cc\	ſuoi
!	!	!	!	!	!	!	!	!LO:SIC:v:t=custos ee	!
.	.	.	.	.	.	.	.	4dd\	be-
!	!	!	!	!	!	!	!	!LO:LB:g=original	!
=53-	=53-	=53-	=53-	=53-	=53-	=53-	=53-	=53-	=53-
.	.	4A/	ſuoi	1r	.	4cny/	ſuoi	2ee\	-gl'o-
.	.	4B\	be-	.	.	4d\	be-	.	.
.	.	4cny\	-gl'o-	.	.	4e\	-gl'o-	2cc\	-cch'il
!	!	!	!	!	!	!LO:SIC:v:t=custos g	!	!	!
.	.	4d\	-cch'il	.	.	4a\	-cch'il	.	.
!	!	!	!	!	!	!LO:LB:g=original	!	!	!
=54-	=54-	=54-	=54-	=54-	=54-	=54-	=54-	=54-	=54-
.	.	1e	ſo-	2r	.	4g\	ſo-	1b	ſo-
.	.	.	.	.	.	2a\	.	.	.
.	.	.	.	4r	.	.	.	.	.
.	.	.	.	4e\	Ne	4g#X\	.	.	.
=55-	=55-	=55-	=55-	=55-	=55-	=55-	=55-	=55-	=55-
4r	.	2A/	le	4.e\	per	1a	le	4a\	-le
!LO:SIC:v:t=custos A	!	!	!	!	!	!	!	!	!
4A\	Ne	.	.	.	.	.	.	4cc\	Ne
.	.	.	.	8d\	fug-	.	.	.	.
!LO:LB:g=original	!	!	!	!	!	!	!	!	!
4.A\	per	4r	.	4c\	-gir	.	.	4.cc\	per
!	!	!LO:SIC:v:t=custos c	!	!	!	!	!	!	!
.	.	4A/	Ne	4e\	ne	.	.	.	.
8G\	fug-	.	.	.	.	.	.	8b\	fug-
!	!	!LO:LB:g=original	!	!	!	!	!	!	!
=56-	=56-	=56-	=56-	=56-	=56-	=56-	=56-	=56-	=56-
4A\	-gir	4.c\	per	4f\	per	1r	.	4a\	-gir
4A\	ne	.	.	4e\	le-	.	.	4cc\	ne
.	.	8d\	fug-	.	.	.	.	.	.
4A\	per	2e\	-gir	4A/	-uar-	.	.	4cc\	per
4G\	le-	.	.	4B\	ſi	.	.	4b\	leuar-
=57-	=57-	=57-	=57-	=57-	=57-	=57-	=57-	=57-	=57-
4F\	-uar-	1r	.	2c\	a	1r	.	4a\	ſi
4E\	ſi a	.	.	.	.	.	.	4g/	a
2D/	vo-	.	.	2d\	vo-	.	.	2fny/	vo-
=58-	=58-	=58-	=58-	=58-	=58-	=58-	=58-	=58-	=58-
0C	-lo	4r	.	2Gny/	-lo	4r	.	2e/	-lo
.	.	4e\	Ne	.	.	4gny\	Ne	.	.
.	.	4.e\	per	4r	.	4.g\	per	4r	.
!	!	!	!	!LO:SIC:v:t=custos e	!	!	!	!	!
.	.	.	.	4e\	Ne	.	.	4g/	Ne
.	.	8d\	fug-	.	.	8f\	fug-	.	.
!	!	!	!	!LO:LB:g=original	!	!	!	!	!
=59-	=59-	=59-	=59-	=59-	=59-	=59-	=59-	=59-	=59-
.	.	4c\	-gir	4.e\	per	4e\	-gir	4.g/	per
.	.	4e\	ne	.	.	4g\	ne	.	.
!	!	!	!	!	!	!	!	!LO:SIC:v:t=custos e	!
.	.	.	.	8d\	fug-	.	.	8f/	fug-
!	!	!	!	!	!	!	!	!LO:LB:g=original	!
.	.	4e\	per	2c\	-gir	4g\	per	2e/	-gir
.	.	4d\	le-	.	.	4f\	le-	.	.
=60-	=60-	=60-	=60-	=60-	=60-	=60-	=60-	=60-	=60-
1r	.	4c\	-uar-	2r	.	4e\	-uar-	2r	.
.	.	4B\	ſi a	.	.	4d\	ſi a	.	.
.	.	1A/	vo-	4r	.	2c/	vo-	2ee\	Ne
.	.	.	.	4c\	Ne	.	.	.	.
=61-	=61-	=61-	=61-	=61-	=61-	=61-	=61-	=61-	=61-
0r	.	.	.	4.c\	per	4e\	-lo	4.ee\	per
.	.	.	.	.	.	4c/	Ne	.	.
.	.	.	.	8B\	fug-	.	.	8dd\	fug-
.	.	2c\	lo	4A/	-gir	4.e\	per	4cc\	-gir
.	.	.	.	4c\	ne	.	.	4ee\	ne
!	!	!	!	!	!	!LO:SIC:v:t=custos g	!	!	!
.	.	.	.	.	.	8f\	fug-	.	.
!	!	!	!	!	!	!LO:LB:g=original	!	!	!
=62-	=62-	=62-	=62-	=62-	=62-	=62-	=62-	=62-	=62-
.	.	4r	.	4c\	per	2g\	-gir	4ee\	per
.	.	4G/	Ne	4B\	le-	.	.	4dd\	le-
.	.	4A/	per	4A/	-uar-	2r	.	4cc\	-uar-
.	.	4B\	le-	4G/	ſi -	.	.	4b\	ſi a
=63-	=63-	=63-	=63-	=63-	=63-	=63-	=63-	=63-	=63-
2r	.	4c\	-uar-	2F/	-a	2r	.	2a\	vo-
!	!	!LO:SIC:v:t=custos B	!	!	!	!	!	!	!
.	.	4A/	-ſi a	.	.	.	.	.	.
!	!	!LO:LB:g=original	!	!	!	!	!	!	!
4r	.	2B\	vo-	4.E/	vo-	4r	.	4g/	-lo
4E\	Ne	.	.	.	.	4g\	Ne	4e/	Ne
.	.	.	.	8F/	.	.	.	.	.
=64-	=64-	=64-	=64-	=64-	=64-	=64-	=64-	=64-	=64-
4.E\	per	2B\	-lo	1G	-lo	4.g\	per	4.e/	per
8D/	fug-	.	.	.	.	8f\	fug-	8f/	fug-
4C/	-gir	4r	.	.	.	4e\	-gir	2g/	-gir
4E\	ne	4B\	Ne	.	.	4g\	ne	.	.
=65-	=65-	=65-	=65-	=65-	=65-	=65-	=65-	=65-	=65-
4E\	per	4B\	per	2r	.	4g\	per	2r	.
!LO:SIC:v:t=custos C	!	!	!	!	!	!	!	!	!
4D/	le-	4B\	le-	.	.	4f\	le-	.	.
!LO:LB:g=original	!	!	!	!LO:SIC:v:t=custos c	!	!	!	!	!
4C/	-uar-	4c\	-uar-	2G/	Ne	4e\	-uar-	2ee\	Ne
4BB/	ſi a	4d\	ſi a	.	.	4d\	ſi a	.	.
!	!	!	!	!LO:LB:g=original	!	!	!	!	!
=66-	=66-	=66-	=66-	=66-	=66-	=66-	=66-	=66-	=66-
1.AA	vo-	1e	vo-	4.c\	per	4c/	vo-	4.ee\	per
.	.	.	.	.	.	4A/	lo	.	.
!	!	!	!	!	!	!	!	!LO:SIC:v:t=custos cc	!
.	.	.	.	8B\	fug-	.	.	8dd\	fug-
!	!	!	!	!	!	!	!	!LO:LB:g=original	!
.	.	.	.	4A/	-gir	4r	.	4cc\	-gir
.	.	.	.	4c\	ne	4A/	Ne	4ee\	ne
=67-	=67-	=67-	=67-	=67-	=67-	=67-	=67-	=67-	=67-
.	.	00E	-lo.	4c\	per	4A/	per	4ee\	per
.	.	.	.	4B\	le-	4B/	le-	4dd\	le-
!LO:N:vis=00	!	!	!	!	!	!	!	!	!
2%7E\	lo.	.	.	4A/	-uar-	4c/	-uar-	4cc\	-uar-
.	.	.	.	4B\	ſi a	4d\	ſi a 	4b\	ſi a
=68-	=68-	=68-	=68-	=68-	=68-	=68-	=68-	=68-	=68-
.	.	.	.	1c	vo-	1e	vo-	1a	vo.-
=69-	=69-	=69-	=69-	=69-	=69-	=69-	=69-	=69-	=69-
!	!	!	!	!LO:N:vis=00	!	!LO:N:vis=00	!	!LO:N:vis=00	!
.	.	.	.	0B	-lo.	0e	-lo.	0g#X/	-'o.
==	==	==	==	==	==	==	==	==	==
*-	*-	*-	*-	*-	*-	*-	*-	*-	*-
!!!system-decoration: [(s1,s2,s3,s4,s5)]
!!!ENC: Marta Opryszak
!!!END: 2022-06-09
!!!ENC: Natalia Wrzos
!!!END: 2022-07-19
!!!YEC: Copyright 2022 Narodowy Instytut Fryderyka Chopina (https://polishscores.org)
!!!YEM: License CC-BY-4.0 (https://creativecommons.org/licenses/by/4.0)
